svgs/thin/arrow-right-from-bracket.svg

<svg xmlns="http://www.w3.org/2000/svg" viewBox="0 0 512 512"><!--! Font Awesome Pro 6.3.0 by @fontawesome - https://fontawesome.com License - https://fontawesome.com/license (Commercial License) Copyright 2023 Fonticons, Inc. --><path d="M120 464h-80c-13.23 0-24-10.77-24-24V72c0-13.23 10.77-24 24-24h80C124.4 48 128 44.42 128 40S124.4 32 120 32h-80C17.94 32 0 49.94 0 72v368C0 462.1 17.94 480 40 480h80C124.4 480 128 476.4 128 472S124.4 464 120 464zM509.7 250.3l-184-184C324.1 64.78 322.1 64 320 64s-4.094 .7813-5.656 2.344c-3.125 3.125-3.125 8.188 0 11.31L484.7 248H136C131.6 248 128 251.6 128 256s3.594 8 8 8h348.7l-170.3 170.3c-3.125 3.125-3.125 8.188 0 11.31C315.9 447.2 317.9 448 320 448s4.094-.7813 5.656-2.344l184-184C511.2 260.1 512 258 512 256S511.2 251.9 509.7 250.3z"/></svg>

<svg xmlns="http://www.w3.org/2000/svg" viewBox="0 0 512 512"><!-- Font Awesome Pro 6.0.0-alpha2 by @fontawesome - https://fontawesome.com License - https://fontawesome.com/license (Commercial License) --><path d="M120 464H40C26.766 464 16 453.234 16 440V72C16 58.766 26.766 48 40 48H120C124.422 48 128 44.422 128 40S124.422 32 120 32H40C17.938 32 0 49.938 0 72V440C0 462.062 17.938 480 40 480H120C124.422 480 128 476.422 128 472S124.422 464 120 464ZM509.656 250.344L325.656 66.344C324.094 64.781 322.062 64 320 64S315.906 64.781 314.344 66.344C311.219 69.469 311.219 74.531 314.344 77.656L484.688 248H136C131.594 248 128 251.578 128 256S131.594 264 136 264H484.688L314.344 434.344C311.219 437.469 311.219 442.531 314.344 445.656C315.906 447.219 317.938 448 320 448S324.094 447.219 325.656 445.656L509.656 261.656C511.219 260.094 512 258.047 512 256S511.219 251.906 509.656 250.344Z"/></svg>
